X: 479
T: Let Us Be Drinking
N:"Playfully" "collected by F.O'Neill"
N:Irish title: bei.d maoid ag ol
B:O'Neill's 479
Z:Transcribed by henrik.norbeck@mailbox.swipnet.se
M:6/8
L:1/8
K:G
B | (dg).g (~gf).g | (abc') (bag) | (dg)g (~gf).g | (afd) (d2B) |
(dg)g ~gfg | (abc') (bag) | (~gf).g afd | (~cB).A G2 ||
d | G>AG B2 B | cAe d2 d | G>AG B2 d | (~cA).F G2 d |
G>AG ABc | def g2 g | gbg afd | (~cB)A G2 ||


